assets/icons/24px/stroke/heart-24px.svg

<svg width="24" height="24" viewBox="0 0 24 24" fill="none" xmlns="http://www.w3.org/2000/svg">
<path fill-rule="evenodd" clip-rule="evenodd" d="M2.87778 3.96199C4.08518 2.71022 5.73062 2 7.45429 2C7.47464 2 7.49499 2.00062 7.5153 2.00186C8.60409 2.06842 9.65902 2.40696 10.5901 2.98604C11.1117 3.31047 11.5854 3.70478 12 4.15643C12.4146 3.70478 12.8883 3.31047 13.4099 2.98604C14.341 2.40696 15.3959 2.06842 16.4847 2.00186C16.505 2.00062 16.5254 2 16.5457 2C18.2694 2 19.9148 2.71022 21.1222 3.96199C22.3284 5.21253 23 6.90118 23 8.6547C23 10.3098 22.2531 11.9637 21.2709 13.445C20.2775 14.9432 18.971 16.3725 17.6929 17.6006C16.4107 18.8327 15.1324 19.8858 14.1768 20.6297C13.6982 21.0023 13.2986 21.2988 13.0174 21.5031C12.8767 21.6052 12.7656 21.6844 12.6888 21.7386C12.6504 21.7657 12.6206 21.7865 12.6 21.8008L12.5761 21.8175L12.5694 21.822L12.5675 21.8234C12.5672 21.8236 12.5664 21.8241 12 21C11.4296 21.8213 11.4294 21.8212 11.4291 21.8211L11.4266 21.8193L11.4199 21.8146L11.3961 21.7979C11.3755 21.7834 11.3458 21.7624 11.3074 21.7351C11.2307 21.6804 11.1196 21.6006 10.9791 21.4975C10.698 21.2915 10.2986 20.9925 9.82025 20.6172C8.86505 19.8678 7.58738 18.8082 6.30577 17.5721C5.02833 16.34 3.72254 14.9091 2.72968 13.4153C1.74894 11.9398 1 10.294 1 8.6547C1 6.90117 1.67156 5.21253 2.87778 3.96199ZM12 21L11.4291 21.8211C11.7707 22.0582 12.2237 22.0596 12.5664 21.8241L12 21ZM12.0028 19.7674C12.2529 19.5836 12.575 19.3421 12.9482 19.0515C13.8676 18.3358 15.0893 17.3287 16.3071 16.1585C17.529 14.9843 18.7225 13.6693 19.6041 12.3398C20.4969 10.9932 21 9.73586 21 8.6547C21 7.40879 20.5223 6.22084 19.6827 5.35046C18.8517 4.48885 17.7348 4.00839 16.5762 4.00011C15.8328 4.05061 15.1095 4.28427 14.4663 4.68434C13.8218 5.08518 13.2756 5.64208 12.8757 6.3112L12.87 6.32068C12.8673 6.32515 12.8626 6.33291 12.8567 6.3422C12.8475 6.35667 12.8213 6.39767 12.7826 6.44506C12.717 6.52547 12.4586 6.81767 12 6.81767C11.5414 6.81767 11.283 6.52547 11.2174 6.44506C11.1787 6.39767 11.1525 6.35667 11.1433 6.3422C11.1374 6.33291 11.1327 6.32515 11.13 6.32068L11.1243 6.3112C10.7244 5.64208 10.1782 5.08518 9.53374 4.68434C8.89053 4.28427 8.16721 4.05061 7.42383 4.00011C6.26523 4.00839 5.14834 4.48885 4.31727 5.35046C3.47773 6.22085 3 7.40879 3 8.6547C3 9.71543 3.50106 10.9628 4.39532 12.3082C5.27746 13.6354 6.47167 14.9534 7.69423 16.1326C8.91262 17.3078 10.1349 18.322 11.0547 19.0436C11.4291 19.3374 11.7521 19.5816 12.0028 19.7674ZM11.1589 5.28518C11.1497 5.30062 11.1523 5.29522 11.1629 5.2786C11.1616 5.28079 11.1602 5.28298 11.1589 5.28518ZM12.8371 5.27861C12.8477 5.29522 12.8503 5.30061 12.8411 5.28518C12.8398 5.28299 12.8384 5.2808 12.8371 5.27861Z" fill="white"/>
</svg>

<svg width="24" height="24" fill="none" xmlns="http://www.w3.org/2000/svg"><path fill-rule="evenodd" clip-rule="evenodd" d="M2.878 3.962a6.358 6.358 0 0 1 4.637-1.96 6.58 6.58 0 0 1 3.075.984c.522.324.995.719 1.41 1.17a6.764 6.764 0 0 1 1.41-1.17A6.58 6.58 0 0 1 16.546 2c1.723 0 3.369.71 4.576 1.962A6.762 6.762 0 0 1 23 8.655c0 1.655-.747 3.309-1.73 4.79-.992 1.498-2.299 2.927-3.577 4.156a45.462 45.462 0 0 1-5.093 4.2l-.024.017-.007.004-.002.001L12 21l-.57.821-.003-.002-.007-.004-.024-.017a23.864 23.864 0 0 1-.417-.3 46.419 46.419 0 0 1-4.673-3.925c-1.278-1.233-2.583-2.664-3.576-4.158C1.749 11.94 1 10.294 1 8.655c0-1.754.672-3.442 1.878-4.693zM12 21l-.57.821a1 1 0 0 0 1.136.003L12 21zm.003-1.233a43.462 43.462 0 0 0 4.304-3.609c1.222-1.174 2.415-2.489 3.297-3.818C20.497 10.993 21 9.736 21 8.655a4.762 4.762 0 0 0-1.317-3.305A4.36 4.36 0 0 0 16.576 4a4.58 4.58 0 0 0-2.11.684c-.644.401-1.19.958-1.59 1.627l-.006.01a1.101 1.101 0 0 1-.087.124 1.01 1.01 0 0 1-1.653-.124l-.006-.01a4.829 4.829 0 0 0-1.59-1.627A4.58 4.58 0 0 0 7.424 4a4.36 4.36 0 0 0-3.107 1.35A4.762 4.762 0 0 0 3 8.655c0 1.06.501 2.308 1.395 3.653.882 1.327 2.077 2.645 3.3 3.825a44.396 44.396 0 0 0 4.308 3.634zm-.844-14.482l.004-.006-.004.006zm1.678-.006c.01.016.013.022.004.006l-.004-.006z" fill="#fff"/></svg>
